{
  "backgroundcolor": "#f5efe4",
  "compressionlevel": -1,
  "height": 14,
  "infinite": false,
  "layers": [
    {
      "data": [
        1, 1, 1, 1, 1, 1, 1, 1, 1, 2, 2, 1, 1, 1, 1, 1, 1, 1, 1, 1,
        1, 3, 3, 3, 3, 1, 1, 1, 1, 2, 2, 1, 1, 1, 1, 7, 7, 7, 7, 1,
        1, 3, 3, 3, 3, 1, 1, 1, 1, 2, 2, 1, 1, 1, 1, 7, 7, 7, 7, 1,
        1, 3, 3, 3, 3, 1, 1, 1, 1, 2, 2, 1, 1, 1, 1, 1, 1, 1, 1, 1,
        1, 1, 1, 1, 1, 1, 1, 1, 1, 2, 2, 1, 1, 1, 1, 1, 1, 1, 1, 1,
        1, 1, 1, 1, 1, 1, 1, 1, 1, 2, 2, 1, 1, 1, 1, 1, 1, 1, 1, 1,
        1, 1, 1, 1, 1, 1, 1, 1, 1, 2, 2, 1, 1, 1, 1, 1, 1, 1, 1, 1,
        2, 2, 2, 2, 2, 2, 2, 2, 2, 2, 2, 2, 2, 2, 2, 2, 2, 2, 2, 2,
        1, 1, 1, 1, 1, 1, 1, 1, 1, 2, 2, 1, 1, 1, 1, 1, 1, 1, 1, 1,
        1, 1, 1, 1, 1, 1, 1, 1, 1, 2, 2, 1, 1, 1, 1, 1, 1, 1, 1, 1,
        1, 1, 1, 1, 1, 1, 1, 1, 1, 2, 2, 1, 1, 7, 7, 1, 1, 1, 1, 1,
        1, 1, 1, 1, 1, 1, 1, 1, 1, 2, 2, 1, 1, 7, 7, 1, 1, 1, 1, 1,
        1, 1, 1, 1, 1, 1, 1, 1, 1, 2, 2, 1, 1, 1, 1, 1, 1, 1, 1, 1,
        1, 1, 1, 1, 1, 1, 1, 1, 1, 2, 2, 1, 1, 1, 1, 1, 1, 1, 1, 1
      ],
      "height": 14,
      "id": 1,
      "name": "Ground",
      "opacity": 1,
      "type": "tilelayer",
      "visible": true,
      "width": 20,
      "x": 0,
      "y": 0
    },
    {
      "data": [
        6, 0, 6, 0, 0, 0, 0, 0, 0, 0, 0, 0, 0, 0, 0, 0, 0, 6, 0, 0,
        0, 0, 0, 0, 0, 6, 0, 0, 0, 0, 0, 0, 6, 0, 0, 0, 0, 0, 0, 6,
        0, 0, 0, 0, 0, 0, 0, 0, 0, 0, 0, 0, 0, 0, 0, 0, 0, 0, 0, 0,
        0, 0, 0, 0, 0, 0, 6, 0, 0, 0, 0, 0, 0, 0, 0, 0, 0, 0, 0, 0,
        0, 0, 0, 0, 0, 0, 0, 0, 0, 0, 0, 0, 0, 4, 4, 4, 0, 0, 6, 0,
        0, 0, 0, 0, 0, 0, 0, 0, 0, 0, 0, 0, 0, 4, 4, 4, 0, 0, 0, 0,
        0, 0, 0, 0, 0, 0, 0, 0, 0, 0, 0, 0, 0, 0, 0, 5, 5, 5, 0, 0,
        0, 0, 0, 0, 0, 0, 0, 0, 0, 0, 0, 0, 0, 0, 0, 0, 0, 0, 0, 0,
        0, 0, 0, 0, 0, 0, 0, 0, 0, 0, 0, 0, 0, 0, 0, 0, 0, 0, 0, 0,
        0, 6, 0, 4, 4, 4, 0, 0, 0, 0, 0, 0, 0, 0, 0, 0, 0, 0, 0, 0,
        0, 0, 0, 4, 4, 4, 0, 0, 0, 0, 0, 0, 0, 0, 8, 8, 0, 8, 8, 0,
        0, 0, 0, 5, 5, 5, 0, 6, 0, 0, 0, 0, 0, 0, 0, 0, 0, 0, 0, 0,
        0, 0, 0, 0, 0, 0, 0, 0, 0, 0, 0, 0, 0, 0, 0, 0, 6, 0, 0, 6,
        6, 0, 0, 0, 0, 0, 6, 0, 0, 0, 0, 0, 0, 0, 0, 0, 0, 0, 0, 0
      ],
      "height": 14,
      "id": 2,
      "name": "Details",
      "opacity": 1,
      "type": "tilelayer",
      "visible": true,
      "width": 20,
      "x": 0,
      "y": 0
    },
    {
      "draworder": "topdown",
      "id": 3,
      "name": "Markers",
      "objects": [
        {
          "id": 1,
          "name": "player-start",
          "point": true,
          "rotation": 0,
          "type": "",
          "visible": true,
          "x": 168,
          "y": 120
        },
        {
          "id": 2,
          "name": "npc-cartographer",
          "point": true,
          "rotation": 0,
          "type": "",
          "visible": true,
          "x": 72,
          "y": 168
        },
        {
          "id": 3,
          "name": "npc-innkeeper",
          "point": true,
          "rotation": 0,
          "type": "",
          "visible": true,
          "x": 232,
          "y": 104
        },
        {
          "id": 4,
          "name": "npc-gardener",
          "point": true,
          "rotation": 0,
          "type": "",
          "visible": true,
          "x": 280,
          "y": 184
        }
      ],
      "opacity": 1,
      "type": "objectgroup",
      "visible": true,
      "x": 0,
      "y": 0
    }
  ],
  "nextlayerid": 4,
  "nextobjectid": 5,
  "orientation": "orthogonal",
  "renderorder": "right-down",
  "tiledversion": "1.11.0",
  "tileheight": 16,
  "tilesets": [
    {
      "firstgid": 1,
      "source": "../tilesets/starter-town-tileset.tsj"
    }
  ],
  "tilewidth": 16,
  "type": "map",
  "version": "1.11",
  "width": 20
}
